packages/bezier-icons/icons/lightbulb.svg

<svg width="24" height="24" viewBox="0 0 24 24" fill="none" xmlns="http://www.w3.org/2000/svg">
<path fill-rule="evenodd" clip-rule="evenodd" d="M11 3C11 3.55228 11.4477 4 12 4C12.5523 4 13 3.55228 13 3V1C13 0.447715 12.5523 0 12 0C11.4477 0 11 0.447715 11 1V3ZM5.12132 5.53554C5.51185 5.92606 6.14501 5.92606 6.53554 5.53554C6.92606 5.14501 6.92606 4.51185 6.53554 4.12132L5.12132 2.70711C4.7308 2.31658 4.09763 2.31658 3.70711 2.70711C3.31658 3.09763 3.31658 3.7308 3.70711 4.12132L5.12132 5.53554ZM17.7071 5.53553C17.3166 5.14501 17.3166 4.51184 17.7071 4.12132L19.1213 2.70711C19.5118 2.31658 20.145 2.31658 20.5355 2.70711C20.9261 3.09763 20.9261 3.7308 20.5355 4.12132L19.1213 5.53553C18.7308 5.92606 18.0976 5.92606 17.7071 5.53553ZM13.0061 17C13.0711 15.87 13.6041 14.816 14.4601 14.148C15.4391 13.384 16.0001 12.237 16.0001 11C16.0001 9.79 15.4611 8.658 14.5211 7.894C13.5671 7.119 12.3621 6.836 11.1271 7.092C9.59011 7.413 8.33011 8.725 8.06211 10.284C7.81111 11.744 8.33811 13.169 9.47311 14.094C10.3801 14.835 10.9261 15.883 10.9931 17H13.0061ZM10.7181 5.134C12.5241 4.756 14.3721 5.196 15.7821 6.342C17.1911 7.487 18.0001 9.185 18.0001 11C18.0001 12.857 17.1581 14.579 15.6901 15.725C15.2581 16.062 15.0001 16.625 15.0001 17.231V19V21C15.0001 21.552 14.5521 22 14.0001 22H10.0001C9.44812 22 9.00012 21.552 9.00012 21V18V17.232C9.00012 16.633 8.71112 16.054 8.20912 15.644C6.50712 14.256 5.71612 12.126 6.09112 9.945C6.50112 7.56 8.36012 5.626 10.7181 5.134Z" fill="#313234"/>
</svg>

<svg xmlns="http://www.w3.org/2000/svg" width="24" height="24" fill="none" viewBox="0 0 24 24"><path fill="#313234" fill-rule="evenodd" d="M11 3a1 1 0 1 0 2 0V1a1 1 0 1 0-2 0zM5.121 5.536A1 1 0 0 0 6.536 4.12L5.12 2.707a1 1 0 1 0-1.414 1.414zm12.586 0a1 1 0 0 1 0-1.415l1.414-1.414a1 1 0 1 1 1.415 1.414L19.12 5.536a1 1 0 0 1-1.414 0M13.007 17c.064-1.13.597-2.184 1.453-2.852A3.97 3.97 0 0 0 16 11c0-1.21-.539-2.342-1.479-3.106-.954-.775-2.159-1.058-3.394-.802-1.537.321-2.797 1.633-3.065 3.192-.25 1.46.276 2.885 1.411 3.81.907.741 1.453 1.789 1.52 2.906zM10.717 5.134a6.03 6.03 0 0 1 5.064 1.208A5.98 5.98 0 0 1 18 11a5.96 5.96 0 0 1-2.31 4.725c-.432.337-.69.9-.69 1.506V21a1 1 0 0 1-1 1h-4a1 1 0 0 1-1-1v-3.768c0-.599-.289-1.178-.79-1.588-1.703-1.388-2.494-3.518-2.119-5.699.41-2.385 2.27-4.319 4.627-4.811" clip-rule="evenodd"/></svg>
